static/assets/img/icons/theme/cooking/rolling-pin.svg

<svg height="24" viewBox="0 0 24 24" width="24" xmlns="http://www.w3.org/2000/svg"><g fill="none" fill-rule="evenodd"><path d="m0 0h24v24h-24z" opacity="0"/><g fill="#000"><path d="m5.28248558 14.4748737 9.19238812-9.19238812c.5857865-.58578644 1.5355339-.58578644 2.1213204 0l2.1213203 2.12132034c.5857865.58578644.5857865 1.53553391 0 2.12132035l-9.19238813 9.19238813c-.58578644.5857865-1.53553391.5857865-2.12132035 0l-2.12132034-2.1213203c-.58578644-.5857865-.58578644-1.5355339 0-2.1213204z"/><path d="m3.51471863 18.363961.70710678-.7071068c.19526214-.1952621.51184463-.1952621.70710678 0l1.41421356 1.4142136c.19526215.1952622.19526215.5118446 0 .7071068l-.70710678.7071068c-.58578644.5857864-1.53553391.5857864-2.12132034 0-.58578644-.5857865-.58578644-1.5355339 0-2.1213204zm14.84924237-14.84924237c.5857865-.58578644 1.5355339-.58578644 2.1213204 0 .5857864.58578643.5857864 1.5355339 0 2.12132034l-.7071068.70710678c-.1952622.19526215-.5118446.19526215-.7071068 0l-1.4142136-1.41421356c-.1952621-.19526215-.1952621-.51184464 0-.70710678z" opacity=".3"/></g></g></svg>

<svg width="24px" height="24px" viewBox="0 0 24 24" version="1.1" xmlns="http://www.w3.org/2000/svg" xmlns:xlink="http://www.w3.org/1999/xlink">
    <title>Icon For Rolling-pin</title>
    <g stroke="none" stroke-width="1" fill="none" fill-rule="evenodd">
        <rect opacity="0" x="0" y="0" width="24" height="24"></rect>
        <path d="M5.28248558,14.4748737 L14.4748737,5.28248558 C15.0606602,4.69669914 16.0104076,4.69669914 16.5961941,5.28248558 L18.7175144,7.40380592 C19.3033009,7.98959236 19.3033009,8.93933983 18.7175144,9.52512627 L9.52512627,18.7175144 C8.93933983,19.3033009 7.98959236,19.3033009 7.40380592,18.7175144 L5.28248558,16.5961941 C4.69669914,16.0104076 4.69669914,15.0606602 5.28248558,14.4748737 Z" fill="#000000"></path>
        <path d="M3.51471863,18.363961 L4.22182541,17.6568542 C4.41708755,17.4615921 4.73367004,17.4615921 4.92893219,17.6568542 L6.34314575,19.0710678 C6.5384079,19.26633 6.5384079,19.5829124 6.34314575,19.7781746 L5.63603897,20.4852814 C5.05025253,21.0710678 4.10050506,21.0710678 3.51471863,20.4852814 C2.92893219,19.8994949 2.92893219,18.9497475 3.51471863,18.363961 Z M18.363961,3.51471863 C18.9497475,2.92893219 19.8994949,2.92893219 20.4852814,3.51471863 C21.0710678,4.10050506 21.0710678,5.05025253 20.4852814,5.63603897 L19.7781746,6.34314575 C19.5829124,6.5384079 19.26633,6.5384079 19.0710678,6.34314575 L17.6568542,4.92893219 C17.4615921,4.73367004 17.4615921,4.41708755 17.6568542,4.22182541 L18.363961,3.51471863 Z" fill="#000000" opacity="0.3"></path>
    </g>
</svg>
